X:89
T:Morrison's Jig
M:6/8
K:D
L:1/8
|: "Em" E3 BEB | EBE "D" AFD | "Em" E3 uB2 uc | "D" dcB AFD |
   "Em" E3 BEB | EBE "D" AFD | "G" G2 vG "D" FGA | dAG FED :|
"Em" Bee fee | bee "D" fed | "Em" Bee fee | "D" va2 vg "D" fed |
"Em" Bee fee | bee "D" uf2 uf | "G" gfe "D" d2 (A | "G" B)AG "D" FED |
"Em" Bee fee | bee "D" fed | "Em" Bee fee | "D" (f/g/a)f def |
"G" vg2 vg gfe | def ug2 ud | "C "edc "G" ud2 uA | "G" BAG "D" FED |] "Em" E6 |]
N:Andre Quirion

